symbols/web/font_download_off/materialsymbolsoutlined/font_download_off_wght100grad200_48px.svg

<svg xmlns="http://www.w3.org/2000/svg" height="48" width="48"><path d="m42.95 45-3-2.95q-.2.1-.4.125-.2.025-.45.025H9.25q-1.45 0-2.425-.975-.975-.975-.975-2.475V8.9q0-.25.025-.45T6 8.05L3.95 6 5.2 4.75l39 39ZM9.2 40.45h29.15L7.6 9.65v29.2q0 .6.5 1.1.5.5 1.1.5Zm33.05-3.8L40.5 34.9V9.15q0-.6-.5-1.1-.5-.5-1.1-.5H13.1L11.35 5.8H38.8q1.45 0 2.45.975 1 .975 1 2.425ZM28.75 23.2l-2.85-2.95-1.8-4.95h-.2l-.75 2.25-1.3-1.35 1.4-4.1h1.5Zm-5.8 1.85Zm3.85-3.85Zm4.4 14.1-2.3-6.85 2.7 2.7 1.5 4.15Zm-16.3 0L20.4 20l1.35 1.35-2.15 6.1h8.25l1.7 1.7h-10.6L16.8 35.3Z"/></svg>

<svg xmlns="http://www.w3.org/2000/svg" height="48" width="48"><path d="M42.95 45 39.95 42.05Q39.75 42.15 39.55 42.175Q39.35 42.2 39.1 42.2H9.25Q7.8 42.2 6.825 41.225Q5.85 40.25 5.85 38.75V8.9Q5.85 8.65 5.875 8.45Q5.9 8.25 6 8.05L3.95 6L5.2 4.75L44.2 43.75ZM9.2 40.45H38.35L32.2 34.3H30.7L29.9 32L27.1 29.15H18.95L17 34.7H15.1L19.8 21.85L7.6 9.65V38.85Q7.6 39.45 8.1 39.95Q8.6 40.45 9.2 40.45ZM42.25 36.65 40.5 34.9V9.15Q40.5 8.55 40 8.05Q39.5 7.55 38.9 7.55H13.1L11.35 5.8H38.8Q40.25 5.8 41.25 6.775Q42.25 7.75 42.25 9.2ZM19.55 27.55H26.3L21.3 22.55ZM28.75 23.2 25.7 20.05 24.1 15.6H24L23.3 17.7L21.85 16.2L23.25 12.1H24.75ZM22.95 25.05Q22.95 25.05 22.95 25.05Q22.95 25.05 22.95 25.05ZM26.8 21.2Q26.8 21.2 26.8 21.2Q26.8 21.2 26.8 21.2Z"/></svg>
